X: 3
T: Weedwalker
C: Andrew VanNorstrand
O: The Great Bear Trio
R: march, reel
Z: 2018 John Chambers <jc:trillian.mit.edu>
S: Tunes 'N Stuff with Audrey Knuth
S: https://drive.google.com/drive/folders/1yXGhj24P9IU-sNyqHq_582DajPWJPEqj
S: https://www.youtube.com/watch?v=Z3J0DkfXVX0, by-ear at Roaring Jelly practice 2017-9-12.
D: https://www.youtube.com/watch?v=Z3J0DkfXVX0
M: C|
L: 1/8
K: D
|:\
"D"{e}vf4 {e}f3(f  | e2)d2 B2A2 | "G"{A}B3(c d2)dc | BAF2 "A7"A4 |\
"D"{e}vf4 {e}f3(vf | e2)d2 B2A2 | "G"{A}B3(c d2)dB | "A7"AFE2 "D"D4 :|
|:\
"G"{A}vB4 {A}B3(B | "D"A2)F2 E2D2 | "G"{A}B4 {A}B3(B | "D"A2)F2 A4 |\
"G"{A}uB2 {A}vB3(B AB) | "D"A2F2 E2D2 | "*1."y "A7"{D}E4 {D}E4 | "*2."y "D"D4 "*3."(uDE)FA :|
%
"Variants:"\
y2 y8 | "*1."E2EF GFE2 |\
y4    | "*2."D2 {c}d4 c2 :|\
y8 y8 y8 y8 y8
%%text *3. Connecting run not always played.
% %text https://www.youtube.com/watch?v=Z3J0DkfXVX0

% set: Winchell's Falls + Weedwalker
%%text https://www.youtube.com/watch?v=Z3J0DkfXVX0
